X:1
T:Title
%%score [ ( 1 2 ) ( 3 4 ) ]
L:1/8
Q:1/4=120
M:6/8
K:G
V:1 treble nm="Midi_74" snm=" "
V:2 treble 
V:3 bass nm="Midi_74"
V:4 bass 
V:1
"^William Chatterton Dix" E | G2 A"^What child is this?" B>cB | A2 F D>E"^English traditional"F | %3
w: What|child is this, * who|laid to rest * on|
w: |||
w: So|bring him in * cense,|gold and myrrh, * come,|
 G2 E E>^DE | (F2 ^D) B,2 || E | G2 A B>cB | A2 F D>EF | G>FE ^D>^CD | E3 E3 || d3 d>^cB | %11
w: Ma- ry's lap * is|sleep- * ing?|Whom|An- gels greet * with|an- thems sweet, * while|shep * herds watch * are|keep- ing?|This, this * is|
w: ||||||||
w: peas- ant, king, * to|own * him:|the|King of kings * sal-|va- tion brings; * let|lov * ing hearts * en-|throne him.||
 A2 F D>EF | G2 E E>^DE | F2 ^D B,3 || d3 d>^cB | A2 F D>EF | G>FE ^D>^CD | E3 E3 |] %18
w: Christ the King, * ~~whom|shep- herds guard * ~and|~an- gels sing;|haste, haste * to|bring him laud, * the|babe, * ~~the son * of|Ma- ry.|
w: |||||||
w: |||||||
V:2
 E | E2 D D2 G | F2 D D2 D | B,2 B, A,2 E | (^D2 B,) B,2 || E | E2 D D2 G | F2 D D2 D | %8
w: ||||||||
w: Why|lies he in such|mean es- tate where|ox and ass are|feed * ing?|Good|Chris- tian, fear: for|sin- ners here the|
 B,2 C B,2 B, | B,3 B,3 || F3 B>AG | F2 D D2 D | B,2 B, A,2 E | ^D2 B, B,3 || F3 B>AG | F2 D D2 D | %16
w: ||||||||
w: si- lent Word is|plead- ing.|||||||
 B,2 C B,2 B, | B,3 B,3 |] %18
w: ||
w: ||
V:3
 G, | B,2 A, G,2 B, | D2 A, F,2 A, | G,2 G, E,2 E, | B,3 B,2 || G, | B,2 A, G,2 B, | D2 A, F,2 A, | %8
 G,2 A, F,2 B, | A,3 G,3 || D3 D2 D | D2 A, F,2 A, | G,2 G, E,2 E, | B,2 B, B,3 || %14
"^This edition  Andrew Sims 2014" D3 D2 D | D2 A, F,2 A, | G,2 A, F,2 B, | A,3 G,3 |] %18
V:4
 E, | E,2 F, G,2 G, | D,2 D, D,2 D, | E,2 E, C,2 C, | B,,3 B,,2 || E, | E,2 F, G,2 G, | %7
 D,2 D, D,2 D, | E,2 A,, B,,2 B,, | E,3 E,3 || B,3 G,2 G, | D,2 D, D,2 D, | E,2 E, C,2 C, | %13
 B,,2 B,, B,,3 || B,3 G,2 G, | D,2 D, D,2 D, | E,2 A,, B,,2 B,, | E,3 E,3 |] %18

